src/assets/img/icon-loader-02.svg

<svg height="9.6mm" viewBox="0 0 132.47 27.21" width="46.73mm" xmlns="http://www.w3.org/2000/svg"><path d="m1.42 8.22c4.91-2.22 9.05-6.8 14.73-6.8s10.66 6.8 16.63 6.8 10.67-6.8 16.65-6.8 10.84 6.8 16.71 6.8 9.93-6.8 15.92-6.8 11.36 6.8 17.47 6.8 11-6.8 16.71-6.8 9.88 4.53 14.81 6.8m-129.63 17.58c4.91-2.27 9.05-6.8 14.73-6.8s10.66 6.8 16.63 6.8 10.67-6.8 16.65-6.8 10.84 6.8 16.71 6.8 9.93-6.8 15.92-6.8 11.36 6.8 17.47 6.8 11-6.81 16.71-6.81 9.88 4.54 14.81 6.81" fill="none" stroke="#fff" stroke-linecap="round" stroke-linejoin="round" stroke-width="2.83458"/></svg>

<svg xmlns="http://www.w3.org/2000/svg" width="46.73mm" height="9.6mm" viewBox="0 0 132.47 27.21"><title>アセット 2</title><g id="レイヤー_2" data-name="レイヤー 2"><g id="Layer_1" data-name="Layer 1"><path d="M1.42,8.22C6.33,6,10.47,1.42,16.15,1.42s10.66,6.8,16.63,6.8,10.67-6.8,16.65-6.8,10.84,6.8,16.71,6.8,9.93-6.8,15.92-6.8,11.36,6.8,17.47,6.8,11-6.8,16.71-6.8,9.88,4.53,14.81,6.8M1.42,25.8C6.33,23.53,10.47,19,16.15,19S26.81,25.8,32.78,25.8,43.45,19,49.43,19,60.27,25.8,66.14,25.8,76.07,19,82.06,19,93.42,25.8,99.53,25.8s11-6.81,16.71-6.81,9.88,4.54,14.81,6.81" style="fill:none;stroke:#fff;stroke-linecap:round;stroke-linejoin:round;stroke-width:2.8345800000000003px"/></g></g></svg>
